!!!OTL: Als ich bei meinen Schafen wacht (4-6), S. 8
!!!id: P0567
**kern
*clefG2
*k[b-]
*g:
{2b-
4a
4a
4g
4f
=1
2g
2a
2b-}
2r
=2
{2b-
4a
4a
4g
4f
=3
2g
2a
2b-}
2r
=4
{4b-
4b-
4a
4a
4.g
8b-
4a
4a
=5
2g
2b-
2cc
2dd}
2r
=6
{2dd
4cc
4b-
2a
4g
4a
=7
2b-
2a
2g}
==
*-
!!!minrhy: 8
!!!meters: FREI]  ZZ[4 interpreted as [0/4, 0/4]
!!!cut: Als ich bei meinen Schafen wacht (4-6), S. 8
!!!reg: Lothringen
!!!trd: PINCK, Louis: Verklingende Weisen Bd 4, Kassel 1939
!!!rhy1: X__X_X_X_X_  X__X__X__0_   (x2)
!!!rhy2: X__X_X_X_X_  X__X__X__0_
!!!key: P0567  08  G FREI]  ZZ[4
!!!mod: SECHSTONSKALA MOLL ?]  AMBITUS[6
!!!kad: 3b3b51
!!!akz: 3b1_3b1_3b1_53b_
!!!fot: 'a__a__b__c__
!!!for: 'a__a__b__c__
!!!fok: 'V__V__Va_\__
!!!fkt: geistliches, religiöses Lied
!! LOTH VKL
!! PR[4] 2K[6] 2G[8] 3K[8] 3G[14] 4A[14] 4Ü[0] 5A[1] 6K[0] 6G[0]
!! 7K[0] 7G[0] 8A[3] MEHR[0] SI[54] ABS[72] SR[14] SP[40]
!! ST[17] 2k[3] 2g[10] 3k[8] 3g[3] 4d[4] 4ü[0] 5d[0] 6k[0] 6g[10]
!! 7k[4] 7g[0] 8d[0] mehr[0] si[42] dm[+12] sr[13] sp[29]
!! 1F[78] 2F[17] 3F[5] 4F[0] LF[0] 2P[0] 3P[0] 4P[0] TRI[0] DF[3] AB[77]
!! TF[0] U3K[0] U3[0] U4[0] U4Ü[0] U5[23] U6K[0] U6[4] U7K[0] U7[4]
!! N1[19] N2K[0] N2[5] N3K[0] N3[23] N4[8] N4Ü[0] N5[11] N6K[0] N6[1]
!!!n7k: 0] N7[0] O1[0] O2K[0] O2[0] O3K[0] O3[0] HÖ[0
